icones/Chat.svg

<svg width="12" height="13" viewBox="0 0 12 13" fill="none" xmlns="http://www.w3.org/2000/svg">
<path d="M6.012 0.5C9.42 0.5 12 3.29419 12 6.49099C12 10.1985 8.976 12.5 6 12.5C5.016 12.5 3.924 12.2356 3.048 11.7188C2.742 11.5325 2.484 11.3943 2.154 11.5025L0.942 11.863C0.636 11.9592 0.36 11.7188 0.45 11.3943L0.852 10.0483C0.918 9.86204 0.906 9.66375 0.81 9.50751C0.294 8.55809 0 7.51853 0 6.50901C0 3.34827 2.526 0.5 6.012 0.5ZM8.754 5.74587C8.328 5.74587 7.986 6.08838 7.986 6.51502C7.986 6.93565 8.328 7.28418 8.754 7.28418C9.18 7.28418 9.522 6.93565 9.522 6.51502C9.522 6.08838 9.18 5.74587 8.754 5.74587ZM5.988 5.74587C5.568 5.73986 5.22 6.08838 5.22 6.50901C5.22 6.93565 5.562 7.27817 5.988 7.28418C6.414 7.28418 6.756 6.93565 6.756 6.51502C6.756 6.08838 6.414 5.74587 5.988 5.74587ZM3.222 5.74587C2.796 5.74587 2.454 6.08838 2.454 6.51502C2.454 6.93565 2.802 7.28418 3.222 7.28418C3.648 7.27817 3.99 6.93565 3.99 6.51502C3.99 6.08838 3.648 5.74587 3.222 5.74587Z" fill="#1326A2"/>
</svg>

<svg width="12" height="13" fill="none" xmlns="http://www.w3.org/2000/svg"><path d="M6.012.5C9.42.5 12 3.294 12 6.491c0 3.707-3.024 6.009-6 6.009-.984 0-2.076-.264-2.952-.781-.306-.186-.564-.325-.894-.216l-1.212.36c-.306.096-.582-.144-.492-.469l.402-1.346a.629.629 0 0 0-.042-.54C.294 8.558 0 7.518 0 6.509 0 3.349 2.526.5 6.012.5Zm2.742 5.246a.77.77 0 0 0 0 1.538.77.77 0 0 0 0-1.538Zm-2.766 0a.765.765 0 0 0-.768.763c0 .427.342.77.768.775a.77.77 0 0 0 0-1.538Zm-2.766 0a.766.766 0 0 0-.768.769c0 .42.348.77.768.77a.774.774 0 0 0 .768-.77.766.766 0 0 0-.768-.77Z" fill="#1326A2"/></svg>
